X: 11329
T: Eamon Coyne's
R: reel
M: 4/4
K: Gmajor
|:B2dB G3B|AD D2 ADcD|BcdB GB B2|ADFA G3A|
BcdB GABG|AD D2 ADcD|BcdB GB B2|ADFA G3A||
|:B3d gfed|^c3e agfe|f2af df f2|fe^ce d3f|
gfed ce a2-|agfe dcBA|B2dB GB B2|ADFA G3A:|
BD D2 GABG|AD D2 FGAF|BD D2 GABG|ADFA G3A|
B2 dB GB B2|AD D2 ADcD|BD D2 GB B2|ADFA G3A||
|:BGBd gfed|^c3e agfe|f2 af defd|eA^ce d3f|
gfed ce a2-|agfe dcBA|B2dB GB B2|ADFA G3A:|

